X: 84
T: No_45_Pigeon's_Dream_Song.krn
N: Derived from No_45_Pigeon's_Dream_Song.krn
%%abc-version 2.0
%%abcx-abcm2ps-target-version 5.9.1 (29 Sep 2008)
%%abc-creator hum2abc beta
%%abcx-conversion-date 2019/03/15 08:35:44
%%humdrum-veritas 1271005746
%%humdrum-veritas-data 172838726
%%linebreak <none>
%%barnumbers 0
L: 1/16
M: 2/4
K: C clef=bass
[K:clef=bass][M:2/4]z4z2 DD ]|:  
D3D(D4 | 
C4)C3C | 
C4A, z CC | 
C3D(C4 | 
A,4)A,2G,G, ||  
[M:3/4]G,8G, z CC ||  
[M:2/4]C3G,G,4 ||  
[M:3/4]G,3G,(G,4E,) z G,G, ||  
[M:2/4]G,3A,G,4 ||  
[M:3/4]D,3C,C,4A,,2C,C, ||  
[M:2/4]C,3D,C,4 | 
G,,4z2 DD :|]  
G,,4z4 |]  



